src/icons/main-unlock.svg

<svg enable-background="new 0 0 14 14" viewBox="0 0 14 14" xmlns="http://www.w3.org/2000/svg"><path d="m9.9 0c-1.8 0-3.3 1.5-3.3 3.3v2.5h-5.8c-.4 0-.8.3-.8.8v5.8c0 .5.4.8.8.8h9.9c.5 0 .8-.4.8-.8v-5.8c0-.5-.4-.8-.8-.8h-2.5v-2.5c0-.9.7-1.6 1.6-1.6s1.6.7 1.6 1.6v.8c0 .5.4.8.8.8.5 0 .8-.4.8-.8v-.8c.2-1.8-1.3-3.3-3.1-3.3z" fill="#4d5969" transform="translate(.815295 .815294)"/></svg>

<?xml version="1.0" encoding="utf-8"?>
<!-- Generator: Adobe Illustrator 20.1.0, SVG Export Plug-In . SVG Version: 6.00 Build 0)  -->
<svg version="1.1" id="Layer_1" xmlns="http://www.w3.org/2000/svg" xmlns:xlink="http://www.w3.org/1999/xlink" x="0px" y="0px"
	 viewBox="0 0 14 14" style="enable-background:new 0 0 14 14;" xml:space="preserve">
<style type="text/css">
	.st0{fill:#4D5969;}
</style>
<title>HDL/Icon/Standard/unlock</title>
<desc>Created with Sketch.</desc>
<g id="Colors">
	<g id="Main-Icons" transform="translate(-1121.000000, -1064.000000)">
		<g id="Unlock" transform="translate(1099.698824, 1047.863529)">
			<g id="HDL_x2F_Icon_x2F_Standard_x2F_unlock" transform="translate(22.116471, 16.951765)">
				<path id="Path" class="st0" d="M9.9,0C8.1,0,6.6,1.5,6.6,3.3v2.5H0.8C0.4,5.8,0,6.1,0,6.6v5.8c0,0.5,0.4,0.8,0.8,0.8h9.9
					c0.5,0,0.8-0.4,0.8-0.8V6.6c0-0.5-0.4-0.8-0.8-0.8H8.2V3.3c0-0.9,0.7-1.6,1.6-1.6c0.9,0,1.6,0.7,1.6,1.6v0.8
					c0,0.5,0.4,0.8,0.8,0.8c0.5,0,0.8-0.4,0.8-0.8V3.3C13.2,1.5,11.7,0,9.9,0z"/>
			</g>
		</g>
	</g>
</g>
</svg>
